icons/pennant-filled.svg

<svg xmlns="http://www.w3.org/2000/svg" width="256" height="256" fill="none"><rect width="256" height="256" fill="#1AA44A" rx="60"/><path fill="#fff" d="M193.1 127.7v3.9L61.1 167c-12.3-18.9-15-42.6-7.5-63.9 7.8-21.3 25.2-37.8 47.1-44.1 21.6-6.6 45.3-2.4 63.3 11.1 18.3 13.5 29.1 34.8 29.1 57.6M107 198.2q-6.9-1.5-13.5-4.2t-12.3-6.9q-6-3.9-11.1-9l120.6-32.4c-2.1 7.5-5.1 15-9.6 21.6-4.2 6.6-9.6 12.3-15.9 17.1s-13.2 8.7-20.7 11.1c-7.5 2.7-15.3 3.9-23.4 3.9q-6.9 0-14.1-1.2" opacity=".4"/><path fill="#fff" d="M49.4 172.4V82.7l165.9 45z"/><path fill="#17542E" d="M58.4 89.6v76.2l-9 6.6v-16.8h-6.6v-11.1h6.6v-33.6h-6.6V99.5h6.6V82.7z"/></svg>

<svg width="256" height="256" viewBox="0 0 256 256" fill="none" xmlns="http://www.w3.org/2000/svg">
<rect width="256" height="256" rx="60" fill="#1AA44A" />
<path opacity="0.4" d="M193.1 127.7C193.1 128.9 193.1 130.2 193.1 131.6L61.1 167C48.8 148.1 46.1 124.4 53.6 103.1C61.4 81.8 78.8 65.3 100.7 59C122.3 52.4 146 56.6 164 70.1C182.3 83.6 193.1 104.9 193.1 127.7ZM107 198.2C102.4 197.2 97.9 195.8 93.5 194C89.1 192.2 85 189.9 81.2 187.1C77.2 184.5 73.5 181.5 70.1 178.1L190.7 145.7C188.6 153.2 185.6 160.7 181.1 167.3C176.9 173.9 171.5 179.6 165.2 184.4C158.9 189.2 152 193.1 144.5 195.5C137 198.2 129.2 199.4 121.1 199.4C116.5 199.4 111.8 199 107 198.2Z" fill="white"/>
<path d="M49.4 172.4V82.7L215.3 127.7L49.4 172.4Z" fill="white"/>
<path d="M58.4 89.6V165.8L49.4 172.4V155.6H42.8V144.5H49.4V110.9H42.8V99.5H49.4V82.7L58.4 89.6Z" fill="#17542E"/>
</svg>
